X:12
T:Leitrim Town
R:slip jig
C:traditional
O:Irish
D:John McKenna, His Original Recordings, Viva Voce
N:Contacts ...
N:..... Cranford Publications <http://www.cranfordpub.com>
N: ..... Harry Bradshaw, Viva Voce, Dublin.
Z:This abc transcription is for personal use only,
Z:provided this notice remains attached.
Z:Paul Stewart Cranford <psc@cranfordpub.com>
L:1/8
Q:333
M:9/8
K:D
FAA dAB AFD|FAA ded B2 A|FAA dAB AFD|efd edc B2 A:|!
|:fgf efe dcd|faf def g2b|afd gfe dBA|BAF EFA B3:|!

